public/themes/Yaru/status/icons8-kali-linux.svg

<svg xmlns="http://www.w3.org/2000/svg"  viewBox="0 0 100 100" width="60px" height="60px"><path d="M 22.060547 19.480469 C 18.150547 19.480469 13.970625 19.650234 9.640625 19.990234 C 8.570625 20.070234 7.7607813 20.990547 7.8007812 22.060547 C 7.8407813 23.130547 8.7207813 23.980469 9.8007812 23.980469 C 23.710781 24.000469 36.469141 25.689922 44.619141 28.419922 C 42.129141 28.209922 39.610547 28.089844 37.060547 28.089844 C 18.060547 28.089844 3.8009375 33.910391 3.2109375 34.150391 C 2.2409375 34.560391 1.7503125 35.630859 2.0703125 36.630859 C 2.3503125 37.460859 3.1307031 38 3.9707031 38 C 4.1307031 38 4.2909375 37.979453 4.4609375 37.939453 C 4.6109375 37.899453 20.480938 34 36.460938 34 C 38.520938 34 40.500859 34.069453 42.380859 34.189453 C 24.690859 37.009453 11.460313 46.990469 10.820312 47.480469 C 9.9803125 48.130469 9.7908594 49.309453 10.380859 50.189453 C 10.770859 50.759453 11.399063 51.070312 12.039062 51.070312 C 12.389062 51.070312 12.740547 50.979062 13.060547 50.789062 C 13.250547 50.679063 31.949531 39.689453 50.769531 39.689453 C 51.289531 39.689453 51.800547 39.690937 52.310547 39.710938 L 52.369141 39.710938 C 49.879141 41.790937 46.609375 45.790547 46.859375 52.310547 C 47.179375 60.540547 53.159453 65.49 58.939453 66.75 C 61.319453 67.27 63.350547 67.39 65.310547 67.5 C 68.920547 67.72 72.050156 67.899375 76.910156 70.609375 C 82.340156 73.629375 86.450625 81.589141 87.390625 90.869141 C 87.490625 91.879141 88.339375 92.659922 89.359375 92.669922 L 89.380859 92.669922 C 90.390859 92.669922 91.239141 91.919922 91.369141 90.919922 C 91.429141 90.429922 92.430937 81.599687 86.960938 72.929688 C 89.010937 74.779687 90.759844 77.349141 91.339844 80.869141 C 91.499844 81.829141 92.340547 82.539063 93.310547 82.539062 L 93.339844 82.539062 C 94.329844 82.519063 95.160781 81.790547 95.300781 80.810547 C 95.330781 80.560547 96.069531 74.619219 91.019531 69.199219 C 85.779531 63.569219 76.979609 60.720703 64.849609 60.720703 C 61.169609 60.720703 58.320156 59.710938 56.410156 57.710938 C 54.310156 55.520938 53.660234 52.440703 53.740234 50.470703 C 53.870234 47.320703 56.390312 43.640625 63.070312 43.640625 C 66.720313 43.640625 73.270156 46.709141 76.410156 48.369141 C 76.610156 49.469141 77.069141 50.729141 78.119141 51.369141 C 78.399141 51.549141 78.709609 51.679844 79.099609 51.839844 C 80.239609 52.329844 82.150156 53.140156 84.410156 55.660156 C 84.800156 56.090156 85.350391 56.320313 85.900391 56.320312 C 86.280391 56.320312 86.66 56.210234 87 55.990234 L 90.009766 54.009766 C 90.689766 53.559766 91.030859 52.750938 90.880859 51.960938 C 90.720859 51.170938 90.110313 50.540859 89.320312 50.380859 C 88.280312 50.160859 86.969766 49.650234 86.259766 49.240234 C 86.229766 48.780234 86.089062 48.309375 85.789062 47.859375 C 85.649062 47.649375 85.480781 47.450703 85.300781 47.220703 C 84.910781 46.760703 84.389453 46.129922 83.939453 45.169922 C 83.779453 44.839922 83.380781 44.220078 82.550781 43.830078 C 82.780781 43.630078 82.979609 43.389609 83.099609 43.099609 C 83.409609 42.349609 83.240156 41.489922 82.660156 40.919922 C 74.000156 32.299922 66.640078 30.499687 66.330078 30.429688 C 66.180078 30.389688 66.029141 30.369141 65.869141 30.369141 C 65.049141 30.369141 64.3 30.879688 64 31.679688 C 63.65 32.619687 64.059219 33.680391 64.949219 34.150391 C 64.999219 34.170391 67.709297 35.589375 70.779297 37.609375 L 70.720703 37.609375 C 70.260703 37.639375 69.839531 37.840859 69.519531 38.130859 C 68.549531 37.750859 67.309219 37.339375 65.949219 37.109375 C 64.739219 36.899375 63.459844 36.869609 62.339844 36.849609 C 61.359844 36.829609 59.870234 36.790312 59.490234 36.570312 C 59.360234 36.460313 59.189766 36.329453 59.009766 36.189453 C 58.039766 35.469453 56.569297 34.380938 56.029297 27.710938 C 55.989297 27.170938 55.719063 26.660313 55.289062 26.320312 C 54.949062 26.040312 46.530547 19.480469 22.060547 19.480469 z M 22.060547 21.480469 C 46.110547 21.480469 54.039063 27.880859 54.039062 27.880859 C 54.719062 36.340859 56.98 37.080859 58.25 38.130859 C 59.51 39.190859 62.869375 38.610078 65.609375 39.080078 C 68.349375 39.550078 70.550781 40.820312 70.550781 40.820312 L 70.869141 39.609375 C 71.749141 41.679375 73.869141 42.390625 73.869141 42.390625 L 73.869141 40.759766 C 74.659141 42.659766 76.869141 43.970703 76.869141 43.970703 L 76.869141 42.410156 C 76.869141 42.410156 77.609844 43.539844 78.339844 44.339844 C 79.079844 45.149844 79.859375 45.599609 79.859375 45.599609 C 79.859375 45.599609 80.350859 45.480469 80.880859 45.480469 C 81.380859 45.480469 81.920859 45.589531 82.130859 46.019531 C 82.890859 47.649531 83.810859 48.500703 84.130859 48.970703 C 84.440859 49.440703 84.130859 50 84.130859 50 C 84.650859 50.98 87.390156 52.019844 88.910156 52.339844 L 85.900391 54.320312 C 82.680391 50.740313 79.939922 50.149922 79.169922 49.669922 C 78.389922 49.189922 78.269531 47.109375 78.269531 47.109375 C 78.269531 47.109375 68.530313 41.640625 63.070312 41.640625 C 55.020313 41.640625 51.900234 46.460625 51.740234 50.390625 C 51.580234 54.310625 53.729609 62.720703 64.849609 62.720703 C 77.659609 62.720703 85.320547 66.020547 89.560547 70.560547 C 94.020547 75.350547 93.320313 80.539063 93.320312 80.539062 C 91.370312 68.809062 78.119141 66.429687 78.119141 66.429688 C 91.209141 75.999687 89.380859 90.669922 89.380859 90.669922 C 88.490859 81.849922 84.570859 72.589375 77.880859 68.859375 C 69.920859 64.419375 65.939375 66.230781 59.359375 64.800781 C 54.589375 63.760781 49.149375 59.720234 48.859375 52.240234 C 48.509375 43.230234 55.910156 39.720703 55.910156 39.720703 L 52.519531 30.029297 C 45.979531 25.119297 28.700781 22.000469 9.8007812 21.980469 C 14.290781 21.640469 18.370547 21.480469 22.060547 21.480469 z M 37.060547 30.089844 C 41.400547 30.089844 45.969922 30.399922 50.669922 31.169922 C 50.669922 31.179922 50.679453 31.179453 50.689453 31.189453 L 51.210938 33.359375 C 46.560937 32.379375 41.500937 32 36.460938 32 C 20.030938 32 3.9707031 36 3.9707031 36 C 3.9707031 36 18.240547 30.089844 37.060547 30.089844 z M 65.900391 32.380859 C 66.380391 32.500859 73.19 34.319844 81.25 42.339844 L 79.560547 42.339844 C 75.620547 37.509844 66.470391 32.680859 65.900391 32.380859 z M 51.460938 35.449219 L 51.539062 35.449219 L 52.380859 37.710938 C 51.840859 37.690938 51.309531 37.689453 50.769531 37.689453 C 31.459531 37.689453 12.640781 48.720547 12.050781 49.060547 C 12.600781 48.650547 30.140938 35.449219 51.460938 35.449219 z M 81.912109 47.929688 C 81.912109 47.929688 81.822109 48.49825 81.912109 48.65625 C 82.084109 48.96025 83.111328 49.376953 83.111328 49.376953 L 81.912109 47.929688 z"/></svg>

<svg xmlns="http://www.w3.org/2000/svg" width="60" height="60" viewBox="0 0 100 100"><path d="M22.06 19.48c-3.91 0-8.09.17-12.42.51a1.998 1.998 0 0 0 .16 3.99c13.91.02 26.67 1.71 34.82 4.44-2.49-.21-5.01-.33-7.56-.33-19 0-33.26 5.82-33.85 6.06-.97.41-1.46 1.48-1.14 2.48a2.015 2.015 0 0 0 2.39 1.31c.15-.04 16.02-3.94 32-3.94 2.06 0 4.04.07 5.92.19-17.69 2.82-30.92 12.8-31.56 13.29a2.005 2.005 0 0 0-.44 2.71c.39.57 1.02.88 1.66.88.35 0 .7-.09 1.02-.28.19-.11 18.89-11.1 37.71-11.1.52 0 1.03 0 1.54.02h.06c-2.49 2.08-5.76 6.08-5.51 12.6.32 8.23 6.3 13.18 12.08 14.44 2.38.52 4.41.64 6.37.75 3.61.22 6.74.4 11.6 3.11 5.43 3.02 9.54 10.98 10.48 20.26.1 1.01.95 1.79 1.97 1.8h.02c1.01 0 1.86-.75 1.99-1.75.06-.49 1.06-9.32-4.41-17.99 2.05 1.85 3.8 4.42 4.38 7.94.16.96 1 1.67 1.97 1.67h.03c.99-.02 1.82-.75 1.96-1.73.03-.25.77-6.19-4.28-11.61-5.24-5.63-14.04-8.48-26.17-8.48-3.68 0-6.53-1.01-8.44-3.01-2.1-2.19-2.75-5.27-2.67-7.24.13-3.15 2.65-6.83 9.33-6.83 3.65 0 10.2 3.07 13.34 4.73.2 1.1.66 2.36 1.71 3 .28.18.59.31.98.47 1.14.49 3.05 1.3 5.31 3.82.39.43.94.66 1.49.66.38 0 .76-.11 1.1-.33l3.01-1.98a2.01 2.01 0 0 0 .87-2.05c-.16-.79-.77-1.42-1.56-1.58-1.04-.22-2.35-.73-3.06-1.14-.03-.46-.17-.93-.47-1.38-.14-.21-.31-.41-.49-.64-.39-.46-.91-1.09-1.36-2.05-.16-.33-.56-.95-1.39-1.34.23-.2.43-.44.55-.73.31-.75.14-1.61-.44-2.18C74 32.3 66.64 30.5 66.33 30.43c-.15-.04-.3-.06-.46-.06A2 2 0 0 0 64 31.68c-.35.94.06 2 .95 2.47.05.02 2.76 1.44 5.83 3.46h-.06c-.46.03-.88.23-1.2.52-.97-.38-2.21-.79-3.57-1.02-1.21-.21-2.49-.24-3.61-.26-.98-.02-2.47-.06-2.85-.28-.13-.11-.3-.24-.48-.38-.97-.72-2.44-1.81-2.98-8.48a1.97 1.97 0 0 0-.74-1.39c-.34-.28-8.76-6.84-33.23-6.84m0 2c24.05 0 31.98 6.4 31.98 6.4.68 8.46 2.94 9.2 4.21 10.25 1.26 1.06 4.62.48 7.36.95s4.94 1.74 4.94 1.74l.32-1.21c.88 2.07 3 2.78 3 2.78v-1.63c.79 1.9 3 3.21 3 3.21v-1.56s.74 1.13 1.47 1.93c.74.81 1.52 1.26 1.52 1.26s.49-.12 1.02-.12c.5 0 1.04.11 1.25.54.76 1.63 1.68 2.48 2 2.95.31.47 0 1.03 0 1.03.52.98 3.26 2.02 4.78 2.34l-3.01 1.98c-3.22-3.58-5.96-4.17-6.73-4.65-.78-.48-.9-2.56-.9-2.56s-9.74-5.47-15.2-5.47c-8.05 0-11.17 4.82-11.33 8.75-.16 3.92 1.99 12.33 13.11 12.33 12.81 0 20.47 3.3 24.71 7.84 4.46 4.79 3.76 9.98 3.76 9.98-1.95-11.73-15.2-14.11-15.2-14.11C91.21 76 89.38 90.67 89.38 90.67c-.89-8.82-4.81-18.08-11.5-21.81-7.96-4.44-11.94-2.63-18.52-4.06-4.77-1.04-10.21-5.08-10.5-12.56-.35-9.01 7.05-12.52 7.05-12.52l-3.39-9.69C45.98 25.12 28.7 22 9.8 21.98c4.49-.34 8.57-.5 12.26-.5m15 8.61c4.34 0 8.91.31 13.61 1.08 0 .01.01.01.02.02l.52 2.17C46.56 32.38 41.5 32 36.46 32c-16.43 0-32.49 4-32.49 4s14.27-5.91 33.09-5.91m28.84 2.29c.48.12 7.29 1.94 15.35 9.96h-1.69c-3.94-4.83-13.09-9.66-13.66-9.96m-14.44 3.07h.08l.84 2.26c-.54-.02-1.07-.02-1.61-.02-19.31 0-38.13 11.03-38.72 11.37.55-.41 18.09-13.61 39.41-13.61m30.452 12.48s-.09.568 0 .726c.172.304 1.2.721 1.2.721z"/></svg>
